svg/fluentui-system-icons/ic_fluent_video_person_48_filled.svg

<svg width="48" height="48" viewBox="0 0 48 48" fill="none" xmlns="http://www.w3.org/2000/svg">
<path d="M30 20C30 23.3137 27.3137 26 24 26C20.6863 26 18 23.3137 18 20C18 16.6863 20.6863 14 24 14C27.3137 14 30 16.6863 30 20ZM4 11.75C4 9.67893 5.67893 8 7.75 8H40.25C42.3211 8 44 9.67893 44 11.75V36.25C44 38.3211 42.3211 40 40.25 40H7.75C5.67893 40 4 38.3211 4 36.25V11.75ZM7.75 10.5C7.05964 10.5 6.5 11.0596 6.5 11.75V36.25C6.5 36.9404 7.05964 37.5 7.75 37.5H14V31.25C14 29.4551 15.4551 28 17.25 28H30.75C32.5449 28 34 29.4551 34 31.25V37.5H40.25C40.9404 37.5 41.5 36.9404 41.5 36.25V11.75C41.5 11.0596 40.9404 10.5 40.25 10.5H7.75Z" fill="#212121"/>
</svg>

<svg xmlns="http://www.w3.org/2000/svg" width="48" height="48"><path d="M30 20a6 6 0 1 1-12 0 6 6 0 0 1 12 0ZM4 11.75A3.75 3.75 0 0 1 7.75 8h32.5A3.75 3.75 0 0 1 44 11.75v24.5A3.75 3.75 0 0 1 40.25 40H7.75A3.75 3.75 0 0 1 4 36.25v-24.5Zm3.75-1.25c-.69 0-1.25.56-1.25 1.25v24.5c0 .69.56 1.25 1.25 1.25H14v-6.25A3.25 3.25 0 0 1 17.25 28h13.5A3.25 3.25 0 0 1 34 31.25v6.25h6.25c.69 0 1.25-.56 1.25-1.25v-24.5c0-.69-.56-1.25-1.25-1.25H7.75Z"/></svg>
